polaris-icons/icons/new-icons/FileMinor.svg

<svg width="20" height="20" viewBox="0 0 20 20" fill="none" xmlns="http://www.w3.org/2000/svg">
<path d="M8 12.5C7.44772 12.5 7 12.9477 7 13.5C7 14.0523 7.44772 14.5 8 14.5H12C12.5523 14.5 13 14.0523 13 13.5C13 12.9477 12.5523 12.5 12 12.5H8Z" fill="#4A4A4A"/>
<path fill-rule="evenodd" clip-rule="evenodd" d="M6.75 2.5C5.23122 2.5 4 3.73122 4 5.25V14.75C4 16.2688 5.23122 17.5 6.75 17.5H13.25C14.7688 17.5 16 16.2688 16 14.75V8.75C16 8.55109 15.921 8.36032 15.7803 8.21967L10.2803 2.71967C10.1397 2.57902 9.94891 2.5 9.75 2.5H6.75ZM5.5 5.25C5.5 4.55964 6.05964 4 6.75 4H9V7.75C9 8.7165 9.7835 9.5 10.75 9.5H14.5V14.75C14.5 15.4404 13.9404 16 13.25 16H6.75C6.05964 16 5.5 15.4404 5.5 14.75V5.25ZM13.4393 8L10.5 5.06066V7.75C10.5 7.88807 10.6119 8 10.75 8H13.4393Z" fill="#4A4A4A"/>
</svg>

<svg viewBox="0 0 20 20" xmlns="http://www.w3.org/2000/svg"><path d="M8 12.5a1 1 0 1 0 0 2h4a1 1 0 1 0 0-2h-4Z" fill="#5C5F62"/><path fill-rule="evenodd" d="M6.75 2.5a2.75 2.75 0 0 0-2.75 2.75v9.5a2.75 2.75 0 0 0 2.75 2.75h6.5a2.75 2.75 0 0 0 2.75-2.75v-6a.75.75 0 0 0-.22-.53l-5.5-5.5a.75.75 0 0 0-.53-.22h-3Zm-1.25 2.75c0-.69.56-1.25 1.25-1.25h2.25v3.75c0 .966.784 1.75 1.75 1.75h3.75v5.25c0 .69-.56 1.25-1.25 1.25h-6.5c-.69 0-1.25-.56-1.25-1.25v-9.5Zm7.94 2.75-2.94-2.94v2.69c0 .138.112.25.25.25h2.69Z" fill="#5C5F62"/></svg>
